X:1
T:Seven Nation Army
C:Jack White
L:1/8
M:4/4
K:Emin
V:1 treble nm="Alto Saxophone" snm="Alto Sax."
V:1
|:"^bass sample""^Intro" E2>E2 G>E- ED | C4 B,4 | E2>E2 G>E- ED | C4 B,4 ::"^Intro""Em" z8 | %5
w: |||||
w: |||||
w: |||||
"C" z4"B" z4 |"Em" z8 |"C"z4"B"ze e^d :|"Em" ge(ee) z4 |"C"z2>^d2"B" (ee)ed |"Em" (ee)ee e e2e | %11
w: ||I'm gon- na|fight them off *|A sev- en na- tion|ar- my could- n't hold me back.|
w: ||Don't wan- na|hear a- bout it|* Ev- ry sin- gle|one's _ got a story to tell|
w: ||I'm goin' to|Wi- chi- ta *|* Far _ from this|o- pe- ra for e- ver- more|
"C"z4"B"ze e^d |"Em" be(ee) z4 |"C" z4"B" e^d(ee) |"Em" (ee)e^d e e2e |"C"z4"B"ze e^d | %16
w: They gon- na|rip it off *|Tak- ing their *|time * right be- hind my back.|Yeah and I'm|
w: Ev- ry- one|knows a- bout it|From the queen of|Eng land to the hounds of hell.|And if I|
w: I'm gon- na|work the straw _|Make the sweat _|drip _ out of e- v'ry pore.|* And I'm|
"Em" bbaa (gg)fe- |"C" eeee"B" (^dd)de- |"Em" e2 z2 z4 |"C" z4"B" z2 ee |"Em" eeee e d2e- | %21
w: talk- ing to my- self * at night|_ be- cause I can't _ for- get|_||Back and forth with- in my mind|
w: catch you com- ing back * my way|_ I'm going to serve it to you|_|* And|that ain't what you want to hear|
w: bleed- ing and I'm bleed- ing and I'm|bleed- ing right be- fore my _ lord.|_|Oh the|words are going to bleed from me|
"C" ee(ee)"B" ^d d2e- |"Em" e2 z2 z4 |"C"z4"B"z2ee |"^Bridge""Gpedal5" (ee)ee e ^d2e- | %25
w: _ be- hind a cig- a- rette|_|And a|mess- age com- ing from my eyes|
w: _ but that's _ what I'll do|_|And a|feel- ing com- ing from my bones|
w: _ and I will think no more|_|And the|stains _ com- ing from my veins|
"Apedal5" e2 (ee) ee(ee) |:"^Chorus""Em" E2>E2 G>E- ED |"C" C4"B" B,4 |"Em" E2>E2 G>E- ED | %29
w: _ says _ leave it a- lone||||
w: _ says _ find a home _|_ _ _ _ _ _|||
w: _ tell me go back _ home.||||
"C" C>D- DC"^4 Times""B" B,4 :|1,2"Gpedal5" G,G,G,G, G,G,G,G, | %31
w: ||
w: ||
w: ||
"Apedal5" A,A,A,A, A,A,A,A,"^Da Capo" |]3"E" z8 |] %33
w: ||
w: ||
w: ||

